X:22
T:Langstrom's Pony
R:jig
D:Snug in the Blanket,P.O'Brien,J.Gans,D.Sproule
S:James kelly, Dublin, fiddle
Z:Paul Stewart Cranford (P.S.C.), <http://www.cranfordpub.com>
L:1/8
Q:333
M:6/8
K:Amix
e2 d cBA|ecA Bcd|eAA c2 e|dBG Bcd|
eAA cBA|ed=c B2 A|GBd gfe|dBG Bcd:|
|:cBA a^ga| ecA Bcd|cBA g2 e|dBG Bcd|
cBA agf|gfe f2 e|dfa gfe|dBG Bcd:|
